X:1
T:G Major Daniel Belknap, 1797
T:Anonymous author
T:An Anthem for Easter
T:Transcribed from The Harmonist's Companion, 1797.
%%score [ 1 2 3 4 ]
L:1/8
Q:1/4=150
M:4/4
K:G
V:1 treble nm="Voice"
V:2 treble nm="Voice"
V:3 treble-8 nm="Tenor"
V:4 bass nm="Bass"
V:1
 d4 | d2 B2 G2 G2 | B2 c2 d4- | d4 B4 | (c4 d2) ec | d4 c3 B | A8 | z4 B4 | dc B2 ed g2 | %9
 fe d2 d4- | d4 B4 | (d>cBA B2) d2 | e4 d4 | d8 | z4 d4 | d2 d2 d2 d2 | d2 B2 (A>B c2 | %17
 d2) g2 f3 e | d2 d2 d4- | d2 z2 B2 B2 | G2 G2 G2 G2 | G2 G2 G2 B2 | A2 B2 c2 d2 | d8 | d4 B4 | %25
 B6 dc | (B3 c) d4 | (d3 c B2) A2 | G4 A4 | B4 A4 | A8 | z8 | B4 d2 c2 | (B>cBA B2) A2 | B4 B4 | %35
 B6 BA | G4 G4 | B2 c2 d4 | d8 | z4 B4 | (d>cBA B2) d2 | (c>BAB c2) ce | (d>cBc B2) A2 | A6 B2 | %44
 (d>cBA B2) G2 | (B>cBA G2) A2 | B8 |[M:3/4] z4 B2 | d4 d2 | (B>c d2) A2 | (G2 A2) B2 | A4 B2 | %52
 (B2 A2) B2 | e4 d2 | d4 z2 |: B2 B2 B2 | (B>c d2) d2 | (c2 e2) e2 | (B2 d2) d2 | (A2 c2) B2 | %60
 (e2 d2) d2 | d6 :| %62
V:2
 D4 | G2 G2 G2 G2 | D2 C2 B,4- | B,4 D4 | (C2 E2 D2) EF | G4 E4 | F8 | z4 G4 | G2 F2 E2 E2 | %9
w: See|from the dun- geon|of the dead,~|_ Our|great * * De- *|li- verer|rise;|While|con- quest wreaths his|
 D2 D2 D4- | D4 [DG]4 | G2 F4 D2 | G4 F4 | G8 | z4 D4 | G2 G2 G2 G2 | G2 G2 E4 | F2 GE F3 G | %18
w: heav'n- ly head,~|_ And|glo- * ry|glads his|eyes,|See,|how the well- pleased|an- gel rolls~|_ the * stone and|
 F2 F2 G4- | G2 z2 D2 D2 | G2 G2 G2 G2 | G2 G2 G2 G2 | E2 D2 E2 G2 | F8 | D4 D4 | G6 F2 | G4 F4 | %27
w: ope's the prison;~|_ Trum- pets|soun- ding, earth re-|soun- ding, Je- sus|ri- ses from the|dead.|Lo! he|quits his|dark a-|
 (G2 FE D2) C2 | D4 E4 | G4 E4 | F8 | z8 | G4 D2 EF | G6 EF | G4 G4 | G6 D2 | G4 G4 | G4 A4 | %38
w: bode,~ _ _ _ and|flies to|worlds of|light.||Sin- ners, re- *|joice! He *|died for|you: for|you pre-|pares a|
 [GB]8 | z4 G4 | (G>FGc B2) A2 | (A>GAB A2) AA | G>FGABG A2 | A6 G2 | (G>FGc B2) G2 | F4 G2 F2 | %46
w: place;|Sends|down * * * * his|Spi- * * * * rit to|guide~ _ _ _ _ _ you|through With|eve- * * * * ry|gift * and|
 G8 |[M:3/4] z4 G2 | G4 G2 | D4 C2 | (D2 E>F) G2 | F4 G2 | (D2 E2) D2 | (G>F E2) B,2 | D4 z2 |: %55
w: grace.|His|blood, which|did your|sins * * a-|tone, For|your * sal-|va- * * tion|pleads;|
 G2 G2 G2 | G4 F>G | A4 A2 | (B>A G2) B2 | A4 D2 | (G2 F2) [FA]2 | [GB]6 :| %62
w: And, sea- ted|on his *|Fa- ther's|throne, * * He|reigns and|in- * ter-|cedes.|
V:3
 G4 | d2 d2 B2 e2 | d2 ef g4- | g4 g4 | (e4 d2) c2 | B4 c4 | d8 | z4 d4 | Bc d2 cd e2 | de f2 g4- | %10
 g4 d4 | (B>cde d2) B2 | A4 B4 | G8 | z4 B4 | B2 B2 B2 B2 | B2 d2 (e>dcB | A2) G2 A3 c | %18
 B2 A2 G4- | G2 z2 d2 d2 | d2 d2 d2 d2 | d2 d2 d2 d2 | e2 d2 c2 B2 | A8 | B4 d4 | e6 f2 | e4 A4 | %27
 (B3 c d2) e2 | d4 c4 | B4 ^c4 | d8 | z8 | d4 B2 c2 | (d>edc B2) c2 | d4 d4 | d6 B2 | e4 e4 | %37
 e4 f4 | g8 | z4 g4 | (d>cBA G2) AB | (c>dcB A2) AA | (B>cBA B2) c2 | d6 d2 | (g>fed e2) g2 | %45
 (d>edc B2) A2 | G8 |[M:3/4] z4 d2 | B4 d2 | g2 f2 e2 | (d2 c2) B2 | d4 d2 | (g>f e2) d2 | e4 f2 | %54
 g4 z2 |: d2 d2 d2 | g2 d2 d2 | (e2 c2) c2 | (d2 B2) B2 | (c2 A2) d2 | (c2 B2) A2 | G6 :| %62
V:4
 G,4 | G,2 G,2 G,2 C2 | B,2 A,2 G,4- | G,4 G,4 | (A,4 B,2) A,2 | G,4 A,4 | D,8- | D,4 G,4 | %8
 G,A, B,2 A,B, C2 | B,C C2 G,4- | G,4 G,4 | (G,>A,B,C B,2) G,2 | C,4 D,4 | [G,,G,]8 | z4 G,4 | %15
 G,2 G,2 G,2 G,2 | G,2 G,2 (C>B,A,G, | F,2) E,2 D,3 C, | D,2 D,2 G,4- | G,2 z2 B,2 B,2 | %20
 B,2 B,2 B,2 B,2 | B,2 B,2 B,2 B,2 | C2 B,2 A,2 G,2 | D,8 | G,4 G,4 | E,6 D,2 | E,4 D,4 | %27
 (G,3 A, B,2) C2 | B,4 A,4 | G,4 A,4 | D,8 | z8 | G,4 B,2 A,2 | G,6 A,2 | G,4 G,4 | G,6 G,F, | %36
 E,4 E,4 | E,4 D,4 | [G,,G,]8 | z4 G,4 | G,6 F,G, | (A,>B,A,G, F,2) F,F, | (G,>A,G,F, G,2) A,2 | %43
 D,6 G,2 | (G,3 F, E,2) E,2 | D,6 D,2 | G,,8 |[M:3/4] z4 G,2 | G,4 G,2 | (G,>A, B,2) C2 | %50
 (B,2 A,2) G,2 | D,4 G,2 | (G,2 C2) B,2 | C4 D2 | G,4 z2 |: G,2 G,2 G,2 | (G,>A, B,2) B,2 | %57
 A,4 A,2 | G,4 G,2 | A,4 B,2 | (C2 D2) D,2 | [G,,G,]6 :| %62

